!!!COM:	Bach, Johann Sebastian
!!!CDT:	1685/02/21/-1750/07/28/
!!!OTL@@DE:	Uns ist ein Kindlein heut geborn
!!!SCT:	BWV 414
!!!PC#:	148
!!!ONB: Related to chorale 177 (BWV 253)
!!!AGN:	chorale
**kern	**kern	**kern	**kern	**chordsymbol
*ICvox	*ICvox	*ICvox	*ICvox	*
*Ibass	*Itenor	*Ialto	*Isoprn	*
*I"Bass	*I"Tenor	*I"Alto	*I"Soprano	*
*>[A,A,B]	*>[A,A,B]	*>[A,A,B]	*>[A,A,B]	*>[A,A,B]
*>norep[A,B]	*>norep[A,B]	*>norep[A,B]	*>norep[A,B]	*>norep[A,B]
*>A	*>A	*>A	*>A	*>A
*clefF4	*clefGv2	*clefG2	*clefG2	*
*k[f#]	*k[f#]	*k[f#]	*k[f#]	*
*G:	*G:	*G:	*G:	*G:
*M4/4	*M4/4	*M4/4	*M4/4	*M4/4
*met(c)	*met(c)	*met(c)	*met(c)	*met(c)
*MM100	*MM100	*MM100	*MM100	*MM100
4GG	4d	4g	4b	GM
=1	=1	=1	=1	=1
4G	4d	4g	8bL	GM
.	.	.	8ccJ	GM
4F#	4d	4a	4dd	DM
4G	4d	4g	4b	GM
4E	8dL	4g	4g	E(mm)
.	8cJ	.	.	CM
=2	=2	=2	=2	=2
4F	4c	8fL	4a	FMM
.	.	8eJ	.	FMM
4G	4G	4d	4b	GM
4C;	4G;	4e;	4cc;	CM
4GG	4G	[4d	4b	GM
=3	=3	=3	=3	=3
4D	4F#X	8dL]	4a	DMm
.	.	8cJ	.	DMm
8EL	4G	4B	4g	Emm
8DJ	.	.	.	Emm
8CL	2c	2e	4.g	CM
8D	.	.	.	CM
8E	.	.	.	CM
8F#J	.	.	8a	F#dm
=4	=4	=4	=4	=4
4G	8BL	4d	4b	GM
.	8AJ	.	.	GM
8BBL	4G	4d	4b	GM
8CJ	.	.	.	GM
4D	4G	[4d	8aL	G(P5)
.	.	.	8gJ	G(P5)
4D	4F#	8dL]	4a	DMm
.	.	8cJ	.	DMm
=5	=5	=5	=5	=5
2.GG;	2.D;	2.B;	2.g;	GM
=:|!	=:|!	=:|!	=:|!	=:|!
*>B	*>B	*>B	*>B	*>B
4GG	4d	4g	4b	GM
=6	=6	=6	=6	=6
4D	8dL	4f#	4a	DMm
.	8cJ	.	.	DMm
4D#	4B	4f#	4b	BM
4E	4B	8eL	4g	Emm
.	.	8dnXJ	.	Emm
8AL	4A	4c#	4e	AMm
8GJ	.	.	.	AMm
=7	=7	=7	=7	=7
4F#	4A	4.d	4f#	DM
4E	4G	.	4g	E(mm)
.	.	8c#	.	C#d
4DnX;	4F#;	4d;	4a;	DM
4BB	4F#	4d#	4b	BM
=8	=8	=8	=8	=8
8EL	4G	4B	4g	Em
8DnX	.	.	.	GM
8E	4c	4e	4g	CM
8F#J	.	.	.	CM
8GL	8BL	4dnX	4.g	GM
8A	8c	.	.	GM
8G	8B	8eL	.	Em
8F#J	8AJ	8f#J	8a	F#m(?5)
=9	=9	=9	=9	=9
4EL	4G	4g	4b	Em
!!Fixed mix up in bass part. Rhythm should be 4,8 but was written 8,4 (Nat Condit-Schultz, Oct 2017).
8BBJ	2G	4d	4b	GM
8C	.	.	.	GM
2D	.	4.d	8aL	GM
.	.	.	8gJ	GM
.	4F#	.	4a	DMm
.	.	8c	.	DMm
=10	=10	=10	=10	=10
2.GG;	2.D;	2.B;	2.g;	GM
==	==	==	==	==
*-	*-	*-	*-	*-
!!!hum2abc: -Q ''
!!!title: @{PC#}. @{OTL@@DE}
!!!YOR1: 371 vierstimmige Choralges&auml;nge von Johann Sebastian Bach, 
!!!YOR2: 4th ed. by Alfred D&ouml;rffel (Leipzig: Breitkopf und H&auml;rtel, 
!!!YOR2: c.1875). 178 pp. Plate "V.A.10".  reprint: J.S. Bach, 371 Four-Part 
!!!YOR4: Chorales (New York: Associated Music Publishers, Inc., c.1940).
!!!SMS: B&H, 4th ed, Alfred D&ouml;rffel, c.1875, plate V.A.10
!!!EED:  Craig Stuart Sapp
!!!EEV:  2009/05/22
!!! **chordsymbol annotations generated by the FlexibleChoraleHarmonicAnalysis package.
!!! Condit-Schultz, Ju, and Fujinaga, ISMIR (2018)
!!! Created on Sat Mar 02 11:23:32 2019
